polaris-icons/icons/newicons/ChecklistMajor.svg

<svg width="20" height="20" viewBox="0 0 20 20" fill="none" xmlns="http://www.w3.org/2000/svg">
<path d="M7.78032 10.6821C7.48743 10.3892 7.01255 10.3892 6.71966 10.6821C6.42677 10.975 6.42677 11.4498 6.71966 11.7427L8.76776 13.7908C9.06065 14.0837 9.53553 14.0837 9.82842 13.7908L13.2907 10.3285C13.5836 10.0356 13.5836 9.56075 13.2907 9.26786C12.9978 8.97497 12.523 8.97497 12.2301 9.26786L9.29809 12.1998L7.78032 10.6821Z" fill="black"/>
<path fill-rule="evenodd" clip-rule="evenodd" d="M8.5 2C7.47665 2 6.63281 2.76859 6.51425 3.76001C5.10583 3.87959 4 5.06068 4 6.50005V15.25C4 16.7688 5.23122 18 6.75 18H13.25C14.7688 18 16 16.7688 16 15.25V6.50005C16 5.06068 14.8942 3.87959 13.4857 3.76001C13.3672 2.76859 12.5234 2 11.5 2H8.5ZM11.5 3.5H8.5C8.22386 3.5 8 3.72386 8 4V5C8 5.27614 8.22386 5.5 8.5 5.5H11.5C11.7761 5.5 12 5.27614 12 5V4C12 3.72386 11.7761 3.5 11.5 3.5ZM6.51826 5.27149C6.51092 5.21738 6.50575 5.16259 6.50282 5.1072C6.55853 6.16193 7.4314 7 8.5 7H11.5C12.5125 7 13.3493 6.24764 13.4817 5.27149C14.0614 5.38015 14.5 5.88887 14.5 6.50005V15.25C14.5 15.9404 13.9404 16.5 13.25 16.5H6.75C6.05964 16.5 5.5 15.9404 5.5 15.25V6.50005C5.5 5.88887 5.93863 5.38014 6.51826 5.27149Z" fill="black"/>
</svg>

<svg viewBox="0 0 20 20" fill="none" xmlns="http://www.w3.org/2000/svg"><path d="M7.78 10.682a.75.75 0 0 0-1.06 1.06l2.048 2.049a.75.75 0 0 0 1.06 0l3.463-3.463a.75.75 0 1 0-1.06-1.06l-2.933 2.932-1.518-1.518Z" fill="#000"/><path fill-rule="evenodd" clip-rule="evenodd" d="M8.5 2a2 2 0 0 0-1.986 1.76 2.75 2.75 0 0 0-2.514 2.74v8.75a2.75 2.75 0 0 0 2.75 2.75h6.5a2.75 2.75 0 0 0 2.75-2.75v-8.75a2.75 2.75 0 0 0-2.514-2.74 2 2 0 0 0-1.986-1.76h-3Zm3 1.5h-3a.5.5 0 0 0-.5.5v1a.5.5 0 0 0 .5.5h3a.5.5 0 0 0 .5-.5v-1a.5.5 0 0 0-.5-.5Zm-4.982 1.771a2 2 0 0 0 1.982 1.729h3a2 2 0 0 0 1.982-1.729 1.25 1.25 0 0 1 1.018 1.229v8.75c0 .69-.56 1.25-1.25 1.25h-6.5c-.69 0-1.25-.56-1.25-1.25v-8.75c0-.611.439-1.12 1.018-1.229Z" fill="#000"/></svg>
